packages/katcn/src/icons/svg/3d.svg

<svg width="24" height="25" viewBox="0 0 24 25" fill="none" xmlns="http://www.w3.org/2000/svg">
<path d="M17.4632 8.45133L11.9779 11.4165L6.49257 8.45133C5.99391 8.15481 5.39551 8.35249 5.09632 8.84669C4.89685 9.34088 4.99658 9.93391 5.49525 10.2304L10.9805 13.1956V19.3236C10.9805 19.9167 11.3795 20.312 11.9779 20.312C12.5763 20.312 12.9752 19.9167 12.9752 19.3236V13.1956L18.4605 10.2304C18.9592 9.93391 19.1586 9.34088 18.8594 8.84669C18.5602 8.35249 17.9618 8.15481 17.4632 8.45133Z" fill="black"/>
<path d="M19.9 5.33244L13.9 1.83642C12.7 1.13721 11.2 1.13721 10 1.83642L4.1 5.33244C2.8 6.03165 2 7.52995 2 9.02824V15.6208C2 17.119 2.8 18.6173 4.1 19.3166L10.1 22.8126C10.7 23.1122 11.3 23.312 12 23.312C12.7 23.312 13.3 23.1122 13.9 22.8126L19.9 19.3166C21.2 18.6173 22 17.119 22 15.6208V9.02824C22 7.52995 21.2 6.03165 19.9 5.33244ZM20 15.6208C20 16.4198 19.6 17.2189 18.9 17.6185L12.9 21.1145C12.3 21.4142 11.6 21.4142 11 21.1145L5 17.6185C4.3 17.2189 3.9 16.5197 3.9 15.6208V9.02824C3.9 8.22915 4.3 7.43006 5 7.03051L11 3.53449C11.4 3.4346 11.7 3.33471 12 3.33471C12.3 3.33471 12.6 3.4346 12.9 3.63437L18.9 7.1304C19.6 7.52995 20 8.22915 20 9.12813V15.6208Z" fill="black"/>
</svg>

<svg xmlns="http://www.w3.org/2000/svg" fill="none" viewBox="0 0 24 25"><path fill="#000" d="m17.463 8.451-5.485 2.965-5.485-2.965c-.5-.296-1.097-.099-1.397.396-.2.494-.1 1.087.4 1.383l5.484 2.966v6.128c0 .593.4.988.998.988s.997-.395.997-.988v-6.128l5.486-2.966c.498-.296.698-.89.398-1.383-.299-.495-.897-.692-1.396-.396"/><path fill="#000" d="m19.9 5.332-6-3.496a3.89 3.89 0 0 0-3.9 0L4.1 5.332C2.8 6.032 2 7.53 2 9.028v6.593c0 1.498.8 2.996 2.1 3.696l6 3.496c.6.3 1.2.499 1.9.499s1.3-.2 1.9-.5l6-3.495c1.3-.7 2.1-2.198 2.1-3.696V9.028c0-1.498-.8-2.996-2.1-3.696m.1 10.289c0 .799-.4 1.598-1.1 1.998l-6 3.496c-.6.3-1.3.3-1.9 0l-6-3.496c-.7-.4-1.1-1.1-1.1-1.998V9.028c0-.799.4-1.598 1.1-1.997l6-3.497c.4-.1.7-.2 1-.2q.45 0 .9.3l6 3.496c.7.4 1.1 1.1 1.1 1.998z"/></svg>
